X:1
T:A Little Kingdom, CMD
T:A Little Kingdom, CMD
T:Alonzo Potter Howard, 1873
T:Public Domain Courtesy of the Cyber Hymnal™
C:Alonzo Potter Howard, 1873
Z:Public Domain
Z:Courtesy of the Cyber Hymnal™
%%score ( 1 2 ) ( 3 4 )
L:1/8
Q:1/4=110
M:4/4
K:Bb
V:1 treble 
V:2 treble 
V:3 bass 
V:4 bass 
V:1
 F2 | B3 A G2 F2 | [CEA]3 [B,EG] [A,EF]2 (GA) | B3 A [C=EG]2 [Ec]2 | [Ec]6 [Fc]2 | %5
 [D^Fd]3 [DFc] [GB]2 [FA]2 | [DG]3 [CDA] [DGB]2 [C=EGB]2 | [DF]3 [DF] [EF]2 [EF]2 | [DB]6 [EF]2 | %9
 [EF]3 [EG] [EA]2 [EF]2 | [Ec]3 [DB] [EA]2 [EA]2 | [EA]3 [EB] [Ec]2 [E=B]2 | !fermata![Ec]6 [EF]2 | %13
 B3 A G2 ([EGc][FGd]) | [EGe]3 [FGd] [EGc]2 [C=EB]2 | [DFd]3 [DFd] (d2 c2) | [DB]6 |] %17
V:2
 F2 | B3 A G2 F2 | x8 | B3 A x4 | x8 | x8 | x8 | x8 | x8 | x8 | x8 | x8 | x8 | B3 A G2 x2 | x8 | %15
 x4 E4 | x6 |] %17
V:3
 F,2 | B,3 A, G,2 F,2 | [F,,F,]3 [F,,F,] [F,,F,]2 ([G,,G,][A,,A,]) | [B,,B,]3 [A,,A,] C,2 [G,B,]2 | %4
 [F,A,]6 [E,A,]2 | [D,A,]3 [D,A,] [D,D]2 [D,C]2 | B,3 ^F, G,2 C,2 | B,3 =B, C2 A,2 | %8
 [B,,B,]6 [F,A,]2 | [F,A,]3 [F,B,] [F,C]2 [F,A,]2 | [F,A,]3 [F,G,] F,2 F,2 | %11
 F,3 [F,G,] [G,A,]2 [F,^G,]2 | !fermata![F,A,]6 [F,A,]2 | %13
 [B,,B,]3 [A,,A,] [G,,G,]2 ([E,,E,][D,,D,]) | [C,C]3 [D,G,=B,] [E,G,C]2 [G,_B,]2 | %15
 [F,B,]3 [F,B,] [F,A,]4 | [B,,F,B,]6 |] %17
V:4
 F,2 | B,3 A, G,2 F,2 | x8 | x8 | x8 | x8 | B,3 ^F, G,2 C,2 | F,4 [F,,F,]4 | x8 | x8 | x4 F,2 F,2 | %11
 F,3 x5 | x8 | x8 | x8 | x8 | x6 |] %17

